X:1
T:Suite 5 for Cello Solo
T:Suite 5 for Cello Solo
T:Johann Sebastian Bach BWV 1011
T:Präludium
T:Allemande
T:Courante
T:Sarabande
T:Gavotte 1
T:Gavotte 2
T:Gigue
T:by Mutopia-2018/03/31-2215
T:by Mutopia-2018/03/31-2215
T:by Mutopia-2018/03/31-2215
T:by Mutopia-2018/03/31-2215
T:by Mutopia-2018/03/31-2215
T:by Mutopia-2018/03/31-2215
T:by Mutopia-2018/03/31-2215
T:by Mutopia-2018/03/31-2215
T:by Mutopia-2018/03/31-2215
C:Johann Sebastian Bach BWV 1011
Z:by Mutopia-2018/03/31-2215
%%score ( 1 2 3 4 )
L:1/8
Q:1/4=120
M:4/4
K:Eb
V:1 bass nm="Violoncello" snm="Vc."
V:2 bass 
V:3 bass 
V:4 bass 
V:1
 C,2- (C,/G,,/=A,,/=B,,/ C,/D,/E,/F,/ E,/D,/E,/C,/) | A,3 A, (G,A,/F,/) (E,F,/D,/) | %2
w: ||
 E,4 C,2- C,/C,/D,/E,/ | D,3 D, =E,2 B,,/A,,/B,,/G,,/ | F,2 C,,2 C3 C | %5
w: |||
 C2- C/C/B,/A,/ B,>G, A,>B, | A,2 C,,2 (F,-F,/4E,/4D,/4E,/4) F,>C, | F,3 G,/A,/ G,>F, E,>D, | %8
w: |||
 E,2- (E,/F,/4E,/4D,/E,/) TE,3 D, | D,2- (D,/D,/=E,/^F,/ G,/=A,/B,/C/ B,/A,/B,/G,/) | %10
w: ||
 E3 E D3/2C/4B,/4 =A,>B, | =B,3 E,/D,/ E,>G, C>E, | C2- C/B,/C/=A,/ B,>G, _D>F, | %13
w: |||
 _D2- D/C/B,/_A,/ G,>A, B,>G, | A,2 F,,>G,, A,,>B,, C,>E,, | A,2- A,/B,/A,/B,/ TB,3 A, | %16
w: |||
 G,2- G,/F,/E,/D,/ E,/F,/G,/A,/ B,/C/D/B,/ | E2 C,,>D C>B, =A,>G, | %18
w: ||
 ^F,2- F,/C,/B,,/=A,,/ B,,>G, A,,>G,, | _G,,>=A, B,>C D,>C B,>A, | %20
w: ||
 B,2- (B,/G,/F,/E,/ D,/C,/B,,/=A,,/ B,,/G,,/A,,/B,,/) | %21
w: |
 E,2- E,/D,/C,/B,,/ C,/B,/=A,/B,/ C/A,/B,/C/ | %22
w: |
 (^F,/G,/F,/G,/ =A,/F,/G,/A,/) (C,/D,/C,/D,/ E,/C,/D,/E,/) | %23
w: |
 (=A,,/B,,/A,,/B,,/ C,/A,,/B,,/C,/) D,,/=E,,/^F,,/G,,/ A,,/B,,/C,/A,,/ | %24
w: |
 B,,/D,/=E,/^F,/ G,/=A,/B,/C/ D2- D/C/B,/A,/ | B,>^F, G,>C, G,2 TF,>G, ||[M:3/8] G,2 G, | A,C,D, | %28
w: ||||
 E,G,/F,/G,/E,/ | F,=A,,=B,, | C,E,/D,/E,/C,/ | (D,/E,/F,/G,/)A, | T=B,,G,,/F,/E,/D,/ | %33
w: |||||
 E,/F,/D,/E,/F,/D,/ | (E,/D,/E,/)G,/C/D/ | EG,=A, | B,D/C/D/B,/ | C=E,^F, | G,B,/=A,/B,/G,/ | %39
w: ||||||
 =A,/B,/C/D/G,/E/ | ^F,/E/D/C/B,/=A,/ | B,/C/=A,/B,/C/A,/ | B,/G,/D,/E,/F,/D,/ | %43
w: ||||
 =E,/C/G,/A,/B,/G,/ | A,/F,/C,/D,/_E,/C,/ | D,/E,/F,/G,/A,/F,/ | G,/F,/E,/D,/C,/B,,/ | A,,C,D, | %48
w: |||||
 E,G,,/F,,/G,,/E,,/ | F,,=A,,=B,, | C,E,,/D,,/E,,/C,,/ | D,,/E,,/F,,/G,,/A,,/F,,/ | %52
w: ||||
 =B,,/C,/D,/E,/F,/D,/ | E,/F,/D,/E,/F,/D,/ | E,/D,/C,/D,/E,/F,/ | G,/F,/G,=A, | B,D,/C,/D,/B,,/ | %57
w: |||||
 C,/D,/=E,^F, | G,B,,/=A,,/B,,/G,,/ | =A,,/B,,/C,/D,/E,/C,/ | ^F,/G,/=A,/B,/C/A,/ | %61
w: ||||
 B,/C/=A,/B,/C/A,/ | B,/G,/=A,/B,/C/D/ | E/C,/D,/E,/F,/G,/ | A,/F,/G,/A,/B,/C/ | %65
w: ||||
 D/B,,/C,/D,/E,/F,/ | G,/E,/F,/G,/A,/B,/ | C/B,/A,/G,/F,/E,/ | A,/G,/F,/E,/D,/C,/ | %69
w: ||||
 F,/E,/D,/C,/B,,/=A,,/ | (E,/D,/C,/B,,/)B, | C(E,/G,/F,/A,/) | G,/C/B,/A,/B,/G,/ | %73
w: ||||
 A,(C,/E,/)(D,/F,/) | E,/A,/G,/F,/G,/E,/ | (F,/G,/A,/B,/)C | (E,/D,/)(C,/B,,/)(C,/D,/) | %77
w: ||||
 E,/F,/ F,>E, | E,G,/F,/G,/E,/ | B,(D,/B,/)(=E,/B,/) | F,/B,/A,/G,/A,/F,/ | C(E,/C/)(F,/C/) | %82
w: |||||
 G,/C/B,/A,/B,/G,/ | E(G,/E/)(A,/E/) | (B,/D/)(F,/D/)(G,/D/) | A,/C/(E,/C/)(F,/C/) | %86
w: ||||
 G,/C/=B,/=A,/B,/G,/ | _A,/_B,/CD | E/A,/G,/F,/G,/E,/ | F,/(G,/=A,/)(F,/=B,/)F,/ | %90
w: ||||
 C/F,/E,/D,/E,/C,/ | (D,/E,/F,/)D,/=B,,/C,/ | D,/=B,,/G,,/=A,,/B,,/F,,/ | %93
w: |||
 E,,/G,,/C,/F,,/G,,/=B,,/ | (=A,,/C,/F,/)=B,,/C,/E,/ | D,/F,/B,/=E,/F,/A,/ | %96
w: |||
 (F,/G,/)(E,/G,/)(D,/G,/) | (E,/G,/)(E,/C/)(E,/B,/) | (E,/=A,/)(F,/A,/)(E,/A,/) | %99
w: |||
 (D,/_A,/)(D,/B,/)(D,/A,/) | E,/A,/G,/F,/G,/B,/ | EG,,=A,, | B,,D/C/D/B,/ | C=E,,^F,, | %104
w: |||||
 G,,B,/=A,/B,/G,/ | (=A,/B,/C/)A,/^F,/G,/ | (=A,/^F,/D,/)=E,/_G,/C,/ | B,,/D,/G,/C,/D,/^F,/ | %108
w: ||||
 G,,2 D, | D,3 | B,,/D,/G,/=E,/F,/D,/ | =E,/C,/B,,/A,,/B,,/G,,/ | A,,/C,/F,/D,/E,/C,/ | %113
w: |||||
 z (D,/E,/)(D,/E,/) | (F,/G,/)(F,/G,/)(A,/F,/) | (=B,/F,/)(D/A,/)(G,/F,/) | E,/G,/D,/E,/F,/D,/ | %117
w: ||||
 E,/C,/=B,,/C,/D,/B,,/ | C,/E,/D,/E,/F,/D,/ | =E,/B,,/A,,/B,,/C,/A,,/ | B,,/F,/=E,/F,/G,/E,/ | %121
w: ||||
 F,/A,,/G,,/A,,/B,,/G,,/ | A,,/G,/F,/G,/A,/F,/ | G,/=E,,/D,,/E,,/F,,/D,,/ | %124
w: |||
 =E,,/F,,/G,,/A,,/B,,/G,,/ | A,,/G,,/A,,/B,,/C,/D,/ | =E,/F,/G,/A,/B,/G,/ | A,/G,/F,/=E,/F,/G,/ | %128
w: ||||
 A,/B,/C/_D/B,/C/ | _D/B,/F,/A,/G,/B,/ | A,/_D/C/B,/C/A,/ | B,/G,/D,/F,/=E,/G,/ | %132
w: ||||
 F,/B,/A,/G,/A,/F,/ | (G,/A,/B,/)G,/=E,/F,/ | (G,/=E,/C,/)D,/E,/B,,/ | A,,/C,/F,/B,,/C,/=E,/ | %136
w: ||||
 F,F,,A, | A,3 | B,,/A,/F,/D,/F,/D,/ | B,,/(C/B,/A,/G,/F,/) | G,/F,/E,/G,/F,/A,/ | %141
w: |||||
 z (E,/C,/)(E,/C,/) | A,,/G,/(E,/C,/)(E,/C,/) | A,,/(B,/A,/G,/F,/E,/) | (F,/E,/D,/)F,/E,/G,/ | %145
w: ||||
 z (D/=B,/)(D/B,/) | (G,/F,/)(D,/=B,,/)(D,/B,,/) | G,,/(A,/G,/F,/E,/D,/) | (E,/D,/E,/F,/G,/)G,,/ | %149
w: ||||
 A,,CD | EG,,/F,,/G,,/E,,/ | F,,=A,=B, | CE,,/D,,/E,,/C,,/ | D,,/(C,/=B,,/=A,,/G,,/)F,/ | %154
w: |||||
 (E,/D,/)(C/=B,/=A,/G,/) | C/G,/A,/F,/G,/D,/ | (E,/D,/C,/)E,/D,/F,/ | E,/C/G,/E,/F,/D,/ | %158
w: ||||
 (E,/D,/C,/)E,/G,,/B,,/ | =A,,/C,/F,/D,/E,/C,/ | (D,/C,/B,,/)D,/C,/E,/ | D,/F,/B,/G,/A,/F,/ | %162
w: ||||
 (G,/F,/E,/)G,/F,/A,/ | (G,/B,/E/)C/D/=B,/ | C/B,/A,/C/G,/C/ | F,/(E/D/=B,/C/D/) | %166
w: ||||
 G,/(E/D/=B,/C/D/) | A,/(E/D/=B,/C/D/) | ^F,/(E/D/=B,/C/D/) | G,/(E/D/=B,/C/D/) | %170
w: ||||
 z (F,/E,/F,/D,/) | (E,/G,/C/)E,/F,/E,/ | (D,/F,/=B,/)A,/G,/F,/ | (E,/G,/C/)E,/F,/E,/ | %174
w: ||||
 D,/C/=B,/D/G, | A,C,D, | E,G,/F,/G,/E,/ | F,=A,,=B,, | C,E,/D,/E,/C,/ | D,/E,/F,/G,/A,/F,/ | %180
w: ||||||
 C/=B,/=A,/G,/C/B,/ | C/D/ TD>C | (C/B,/A,/G,/A,/)F,/ | =E,/(_D/C/B,/A,/G,/) | %184
w: ||||
 (A,/G,/F,/)D,/E,/C,/ | =B,,/(A,/G,/F,/E,/D,/) | (E,/D,/C,/)=A,,/_B,,/G,,/ | %187
w: |||
 ^F,,/(E,/D,/C,/=B,,/=A,,/) | (=B,,/=A,,/G,,/)B,,/D,/F,/ | (A,/G,/)(G,/F,/)(F,/E,/) | %190
w: |||
 (E,/C,/G,,/C,/E,/)G,/ | (C/B,/)(B,/=A,/)(A,/C/) | (^F,/C,/G,,/C,/F,/)=A,/ | %193
w: |||
 (C/D/4E/4)(D/C/)(C/=B,/) | =B,/D/B,/G,/D,/G,,/ | F,,(C/=B,/=A,/G,/) | CE,,F,, | G,,B,/A,/B,/G,/ | %198
w: |||||
 A,C,,D,, | E,,G,/F,/G,/E,/ | F,=A,,=B,, | C,E,/D,/E,/C,/ | F,,_D/C/=B,/C/ | %203
w: |||||
 (A,/G,/_G,/=G,/E,/D,/) | (C,/E,/_D,/C,/=B,,/C,/) | (^F,,/G,,/=A,,/=B,,/C,/D,/) | %206
w: |||
 (E,/D,/C,/D,/E,/F,/) | G,/D,/E,/C,/G,,/=B,,/ | z (B,,/A,,/B,,/G,,/) | (A,,/C,/F,/)A,,/B,,/A,,/ | %210
w: ||||
 (G,,/B,,/=E,/)_D,/C,/B,,/ | (A,,/C,/F,/)A,,/B,,/A,,/ | (G,,/B,,/=E,/)_D,/C,/B,,/ | %213
w: |||
 (A,,/C,/F,/)D,/E,/C,/ | =B,,/(E,/D,/C,/B,,/=A,,/) | G,,/(G,/F,/E,/D,/C,/) | B, z z | %217
w: ||||
 F,,/(=A,/G,/F,/E,/D,/) | E, z z | G,,/(E/D/)(=B,/C/)G,/ | A,/(^F,/G,/)(D,/E,/)=B,,/ | %221
w: ||||
 (C,/^F,,/) G,,G,, | C3 |][M:4/4][Q:1/4=90] C/ | C2- C/B,/A,/G,/ A,>F, G,>D, | %225
w: ||||
 E,2 C,/_B,,/A,,/G,,/ A,,>F,, G,,>D, | D,3/2C,/4=B,,/4 C,>G, A,,>G, (F,/E,/D,/C,/) | %227
w: ||
 =B,,>A,, G,,/B,,/D,/F,/ A,>G, (F,/E,/F,/D,/) | E,>D, C,/=B,,/C,/D,/ E,/D,/E,/F,/ G,/F,/G,/A,/ | %229
w: ||
 C2- C/B,/A,/G,/ G,3/2F,/4E,/4 _D>B, | C2- C/B,/A,/G,/ A,>C T=E,>F, | %231
w: ||
 G,2- (G,/F,/=E,/F,/4G,/4) C,>B, A,3/2B,/4G,/4 | A,2- A,(C/B,/ A,/G,/F,/E,/ D,/E,/F,/D,/) | %233
w: ||
 A,,2- A,,/(F,/E,/D,/ C,/B,,/A,,/G,,/ F,,/G,,/A,,/F,,/) | A,2- A,/G,/A,/F,/{/E} D2- D/C/D/B,/ | %235
w: ||
 F2- F/E/D/C/ B,>G, A,>F | G,-(G,/4A,/4G,/4F,/4) G,>A, G,2 (TF,3/2E,/4D,/4) | %237
w: ||
 E,2 C,,>B, =A,2 G,/^F,/G, | D2- D/B,/A,/G,/ TB,,>C, (D,/=E,/^F,/)G,/ | %239
w: ||
 =A,/G,/_G,/=G,/ A,/B,/C/D/ E3/2D/4C/4 D>F, | G,2 C,/(=A,/G,/A,/) TA,3 G, | G,>D,=B,,>D, G,,3 z/ :: %242
w: |||
 D/ | D2- D/C/D/E/ =B,>A, G,>F, | E,>G, C/D,/E,/F,/ T=B,,>G, D3/2E/4F/4 | %245
w: |||
 E2 C,,>D C3/2B,/4=A,/4 B,>C | =A,2- A,/A,/B,/C/ F,3/2G,/4A,/4 TB,3/2G,/4A,/4 | %247
w: ||
 B,2 D,,/B,/A,/G,/ F,>E, F,>G, | C,2- C,/B,,/A,,/G,,/ A,2 G,>A, | %249
w: ||
 D,3/2E,/4D,/4 C,D,/B,,/ G,-(G,/4F,/4E,/4D,/4) E,>G, | %250
w: |
 _D,,-D,,/4(G,,/4A,,/4B,,/4 C,/B,,/)A, G,2 (TF,/=E,/F,) | B,,2- B,,/B,,/A,,/G,,/ A,,>F, G,>A, | %252
w: ||
 =E,>B, B,B,/G,/ TG,3 F, | F,2- F,/F,/E,/D,/ E,>(C B,/=A,/G,/F,/) | %254
w: ||
 B,3/2A,/4G,/4 F,>G, A,>G, (F,/E,/D,/E,/4F,/4) | %255
w: |
 T=B,,>G, (DE/4D/4C/4D/4) E>C, (G,,3/2A,,/4_B,,/4) | A,,>G, F,>E D>C (D/=B,/)C | %257
w: ||
 F,>G, (A,/G,/F,/E,/ D,/C,/=B,,/C,/) D,/E,/F,/D,/ | A,,>=B, (C/B,/=A,/G,/) C3 ^F, | %259
w: ||
 G,>E D/E/F/D/ =B,3 C | C>G, E,>C, C3 z/ :|[M:3/2][Q:1/4=96] C, | C,3 D, (E,F,G,A,) (G,F,G,E,) | %263
w: ||||
 F,3 E, (E,D,C,=B,,) C,3 D, | G,,3 C,/=B,,/ C,2 D,2 (F,E,D,C,) | A,3 F,{C} =B,2 C2 D,3 G, | %266
w: |||
 E,3 D, (C,D,E,F,) (G,A,CB,) | B,3 A, (G,F,E,D,) (D,E,=A,,>F,) | (E,D,C,B,,) B,3 C (B,=A,B,G,) | %269
w: |||
 C3 B, (B,=A,G,^F,) G,3 A, | (G,_G,=E,D,) D2 C=B, C2 D2 | E3 D CB,=A,B, T^F,3 G, | %272
w: |||
 =A,,_G,CD{C} [D,B,]2 C,>=A, TA,3 G, | G,2- G,/(F,/E,/D,/) E,>C, G,4 z :: D | %275
w: |||
 D3 E DC=B,C/D/ G,3 A, | F,3 E, (D,E,F,A,) G,2 F,2 | (F,E,D,C,) A,2 G,2 C3 _D | %278
w: |||
 T=E,3 F, (G,A,B,C) _D2 C2 | (B,A,G,F,) (_E,_D,E,C,) (D,F,G,A,) | A,G,F,E, E3 F B,3 A, | %281
w: |||
 A,3 G, A,B,CD D3 C/D/ | E3 B, C2 G,2 G,A,D,B, | (A,G,F,E,) (G,=A,G,A,) TA,3 (G,/A,/) | %284
w: |||
 B,3 =A, (C=B,) C2 (_B,_A,) (G,F,) | F,3 G, E,2 F,,D, TD,3 C, | C,3 G,,/F,,/ E,,/F,,/G,, C4 z :| %287
w: |||
[M:3/4][Q:1/4=50] (G,E,=B,,C,) A,,2 | (CA,=E,F,) =B,,2 | (DA,=E,F,)(G,,G,) | (F,E,=B,,C,) C,,2 | %291
w: ||||
 (C,E,A,G,)(_DC) | (D,F,B,A,)(CB,) | (A,G,D,E,)(B,,D,) | E,,6 :: (B,G,D,E,) _D,,2 | %296
w: |||||
 (B,G,=E,F,) G,,2 | (_DB,=E,F,)(C,,C) | (B,A,=E,F,) F,,2 | (E,,C,F,E,)(B,=A,) | (D,,D,G,F,)(C=B,) | %301
w: |||||
 (CA,_G,=G,)(=B,,C,) | (G,,D,G,^F,)(C=B,) | (EC^F,G,)(=A,,E) | (DA,=E,F,)(=B,,G,) | %305
w: ||||
 (F,E,=B,,C,)(G,,=B,) | (C,,G,,F,E,) C2 :|[M:4/4]S[Q:1/4=130] G,2 C2 | A,2 (B,G,) A,2 (B,F,) | %309
w: ||||
 G,2 (E,=B,,) C,2 (A,E,) | F,2 (D,=A,,) (=B,,D,) G,2 | TE,2 (D,C,) (G,E,)(CG,) | %312
w: |||
 (A,F,)(B,=E,) (A,F,)(B,D,) | (G,_E,)(A,D,) (G,E,)(B,G,) | (CA,)(_DG,) (CA,)(E=A,) | %315
w: |||
 (D_B,)(ED) (CB,)(=A,G,) | [G,=A,]2 (B,G,) A,2 (CA,) | B,2 (C=A,) B,2 (EC) | %318
w: |||
 D2 G,2 (B,=A,) (G,_G,) | G,4 :: B,2 G,2 | =E,2 (F,D,) E,2 (CE,) | F,2 (G,=E,) F,2 (CF,) | %323
w: |||||
 G,2 (A,F,) G,2 (CG,) | (B,A,G,F,) (A,G,F,E,) | (D,A,,)(E,C,) (D,A,,)(B,D,) | %326
w: |||
 (E,G,,)(F,D,) (E,G,,)(B,E,) | (F,B,,)(G,E,) (F,B,,)(B,F,) | (A,G,)(F,E,) A,2 G,2 | %329
w: |||
 (F,E,F,D,) C2 B,2 | (E,D,E,C,) D,2 A,2 | (A,F,G,E,) (G,F,E,D,) | E,4 G,2 E,2 | %333
w: ||||
 B,2 (C=A,) B,2 (CG,) | (B,=A,)(G,F,) (A,G,)(=B,A,) | (C=B,)(DB,) C(E,D,C,) | %336
w: |||
 (G,,D,)(C=B,) (EG,)A,F, | (DF,)(G,E,) (CE,)(F,D,) | (C=B,=A,G,) (CE,)(F,D,) | %339
w: |||
 (_B,D,)(E,C,) (A,C,)(D,=B,,) | G,F,E,D, C,2 (E,C,) | D,2 (E,C,) D,2 (F,D,) | %342
w: |||
 E,2 (F,D,) E,2 (A,F,) | G,2 C,2 (E,D,)(G,,=B,,) | C,4 ::[M:4/4][Q:1/4=130] (3(G,F,G,) (3(A,G,F,) | %346
w: ||||
 G,2- (3(G,F,E,) (3(D,E,F,) (3(E,D,C,) | (3(=B,,C,D,) (3(G,,B,,D,) (3(G,F,G,) (3(A,G,F,) | %348
w: ||
 (3(G,F,E,) (3(D,E,F,) (3(E,D,C,) (3(=B,,C,D,) | C,2 C,,2 :: (3(E,D,E,) (3(F,E,D,) | %351
w: |||
 E,2- (3(E,F,G,) (3(A,G,F,) (3(G,F,E,) | (3(D,E,F,) (3(B,,D,F,) (3(B,=A,B,) (3(CB,A,) | %353
w: ||
 (3(B,=A,G,) (3(EDC) (3(B,A,G,) (3(^F,G,A,) | G,2 G,,2 (3(G,F,G,) (3(A,G,F,) | %355
w: ||
 G,2- (3(G,F,E,) (3(D,E,F,) (3(E,D,C,) | (3(=B,,C,D,) (3(G,,B,,D,) (3(G,F,G,) (3(A,G,F,) | %357
w: ||
 (3(G,F,E,) (3(D,E,F,) (3(E,D,C,) (3(=B,,C,D,) | (3(C,G,,E,,) (3(C,,E,,G,,) (3(C,E,G,) (3(CD=B,) | %359
w: ||
 C2- (3(CB,A,) (3(G,A,B,) (3(A,G,F,) | (3(=E,F,G,) (3(C,D,E,) (3(F,E,F,) (3(G,F,E,) | %361
w: ||
 (3F, (E,_D,(3C,D,E,) (3D, (=E,F,(3G,F,E,) | (3F, (C,B,,(3=A,,B,,C,) (3B,, (=E,F,(3G,F,E,) | %363
w: ||
 (3=B,, (F,G,(3A,G,F,) (3(CB,A,) (3(G,F,=E,) | (3(F,G,A,) (3(G,A,F,) (3(=B,CD) (3(CDB,) | %365
w: ||
 (3(CB,A,) (3(G,F,E,) (3(A,G,F,) (3(E,D,C,) | (3(=B,,C,D,) (3(G,,B,,D,) (3(G,F,G,) (3(A,G,F,) | %367
w: ||
 (3(G,F,E,) (3(D,E,F,) (3(E,D,C,) (3(=B,,C,D,) | C,2 C,,2!D.S.! :|[M:3/8][Q:1/4=120] G, | E,>F,D, | %371
w: |* Gavotte I da Capo|||
 E,>F,D, | C,>(B,,A,,/G,,/) | A,,>C,G,, | F,,>E,C, | D,>E,C, | =B,,>D,G,, | G,>(F,E,/D,/) | %378
w: |||||||
 E,>G,C, | A,>(G,F,/E,/) | F,>A,D, | B,>(A,G,/F,/) | G,>E,C | A,>F,D | E3- | E>(DC/B,/ | %386
w: ||||||||
 C>)(B,A,/G,/ | A,3-) | A,>(G,F,/E,/ | D,>)(C,B,,/A,,/ | G,,>)A,F, | G,>B,D, | E,>G,,B,, | E,,2 :: %394
w: ||||||||
 E, | G,>A,F, | G,>B,=A, | B,>(D,E,/F,/) | B,,>C,D, | E,>C=A, | B,>^F,G, | ^F,>=A,D, | %402
w: ||||||||
 D>(CB,/=A,/) | B,>DG, | F,>G,D, | E,>G,C | E2 D | C>^F,G, | D,>=A,^F, | G,>(B,,C,/D,/) | %410
w: ||||||||
 G,,>B,G, | =E,>G,B, | _D>B,C | A,>(G,F,/=E,/) | F,>A,E, | D,>F,A, | C>A,B, | G,>(F,E,/D,/ | %418
w: ||||||||
 E,>)G,B, | =A,>(F,E,/D,/ | E,>)=A,C | =B,>(G,F,/E,/ | F,>)=B,D | C>G,E | D>G,F | PE3 | P=E3 | %427
w: |||||||||
 F>DE | D>=B,C | T=B,>CD | G,>(F,E,/D,/ | E,) C2- | C>(B,A,/G,/ | A,>)(G,F,/=E,/ | F,3-) | %435
w: ||||||||
 F,>(E,D,/C,/ | =B,,>)(A,,G,,/F,,/ | E,,>)G,,=B,, | D,>F,A, | G,>D,E, | G,,>C,=B,, | C,>E,,G,, | %442
w: |||||||
 C,,2 :| %443
w: |
V:2
 C,,2 x6 | =B,,3 x5 | C,2 C,,2 x4 | =B,,4 _B,,2 x2 | A,,2 x2 F,3 x | F,2 x2 =E,2 x2 | F,2 x6 | %7
 =B,,3 x5 | G,,2 x6 | G,,2 x6 | ^F,3 x5 | =F,3 x5 | D,2 x6 | =E,2 x6 | F,2 x6 | F,2 x6 | E,2 x6 | %17
 x8 | D2 x6 | x8 | D,2 x6 | B,2 x6 | x8 | x8 | x8 | x4 D,2 x2 ||[M:3/8] D,2 x | x3 | x3 | x3 | x3 | %31
 x3 | x3 | x3 | x3 | x3 | x3 | x3 | x3 | x3 | x3 | G, D,2 | x3 | x3 | x3 | x3 | x3 | x3 | x3 | x3 | %50
 x3 | x3 | x3 | C, G,,2 | x3 | x3 | x3 | x3 | x3 | x3 | x3 | G, D,2 | D,/ x5/2 | x3 | x3 | x3 | %66
 x3 | x3 | x3 | x3 | x3 | x3 | x3 | x3 | x3 | x3 | x3 | x B,,2 | B,, x2 | x3 | x3 | x3 | x3 | x3 | %84
 x3 | x3 | x3 | x3 | x3 | x3 | x3 | x3 | x3 | x3 | x3 | x3 | x3 | x3 | x3 | x3 | x3 | x3 | x3 | %103
 x3 | x3 | x3 | x3 | x3 | x3 | z C,/B,,/C,/=A,,/ | x3 | x3 | x3 | =B,,3 | x3 | x3 | x3 | x3 | x3 | %119
 x3 | x3 | x3 | x3 | x3 | x3 | x3 | x3 | x3 | x3 | x3 | x3 | x3 | x3 | x3 | x3 | x3 | x3 | %137
 z (F,/D,/)(F,/D,/) | x3 | x3 | x3 | G,3/2 x3/2 | x3 | x3 | x3 | F,3 | x3 | x3 | x3 | x3 | x3 | %151
 x3 | x3 | x3 | x3 | x3 | x3 | x3 | x3 | x3 | x3 | x3 | x3 | x3 | x3 | x3 | x3 | x3 | x3 | x3 | %170
 G,,3 | G,, x2 | G,, x2 | G,, x2 | x3 | x3 | x3 | x3 | x3 | x3 | x3 | x G,2 | x3 | x3 | x3 | x3 | %186
 x3 | x3 | x3 | x3 | x3 | x3 | x3 | x3 | x3 | x3 | x3 | x3 | x3 | x3 | x3 | x3 | x3 | x3 | x3 | %205
 x3 | x3 | x3 | C,,3 | C,, x2 | C,, x2 | C,, x2 | C,, x2 | C,, x2 | D,, x2 | E,, x2 | G, x2 | x3 | %218
 C, x2 | x3 | x3 | x2 =B, | =E,3 |][M:4/4] x/ | G,,2 x4 =B,,2 | C,2- x6 | E,, x7 | x8 | %228
 C,,/ x15/2 | G,,2 x6 | G,,2 x6 | =E,,2 x6 | C,2 x6 | x8 | B,,2 x6 | A,2 x6 | E,2 x2 =B,,2 x2 | %237
 C,2 x6 | =A,,2 x6 | x8 | B,,2 x2 D,4 | x15/2 :: x/ | G,,2 x6 | x8 | x8 | E,2 x6 | D,2 x6 | %248
 A,2 x2 D,>F, x2 | A,2 x2 E,3/2 x5/2 | x8 | =E,2 x6 | x4 C,3 x | =A,,2 x6 | D,2 x6 | x8 | x8 | %257
 G,,3/2 x13/2 | x7 =A,, | G,,3/2 x5/2 D,4 | x4 G,,3 x/ :|[M:3/2] x | C,,3 x9 | D,,3 x9 | E,,3 x9 | %265
 C,3 x z2 E,2 G,,4 | C,,4 x8 | G,,3 x9 | x12 | E,3 x9 | D, x3 z2 =F,2 _E,2 D,2 | C,3 x9 | %272
 x4 G,,2 x2 D,4 | G,2 x4 G,,4 x :: x | G,,3 x9 | =A,,3 x5 =B,,2 G,,2 | C, x3 z2 B,,2 A,,3 x | %278
 G,,3 x7 =E,2 | F, x11 | x4 C,3 x E,3 x | x12 | G,3 x3 E,2 F,2 x2 | E, x11 | D,3 x3 E,2 F, x D, x | %285
 =B,,2 x2 C,2 x2 G,,3 x | x6 G,,4 x :|[M:3/4] x6 | x6 | x6 | x6 | x6 | x6 | x6 | x6 :: x6 | x6 | %297
 x6 | x6 | x6 | x6 | x6 | x6 | x6 | x6 | x6 | x6 :|[M:4/4] C,,2 x2 | F,2 x2 D,2 x2 | x8 | x8 | %311
 C,,2 x6 | x8 | x8 | x8 | x8 | C,2 x2 E,2 x2 | D,2 x2 C,2 x2 | z2 B,,2 C,2 D, x | G,,4 :: G,,2 x2 | %321
 C,,2 x2 B,,2 x2 | A,,2 x6 | =E,2 x2 C,2 x2 | F,2 x6 | x8 | x8 | x8 | x4 C,2 B,,2 | %329
 A,,2 x2 A,,2 G,,2 | F,,4 F,,2 D,2 | E, x3 B,, x3 | E,,4 E,,2 z2 | D,2 x2 z2 =E,2 | F,2 x6 | %335
 ^F,2 x6 | x8 | x8 | G,,4 x4 | x8 | D,, z z2 E,,2 x2 | F,,2 x2 A,,2 x2 | G,,2 x2 F,,2 x2 | %343
 z2 E,,2 F,, x3 | C,,4 ::[M:4/4] x4 | x8 | x8 | x8 | x4 :: x4 | x8 | x8 | x8 | x8 | x8 | x8 | x8 | %358
 x8 | x8 | x8 | x8 | x8 | x8 | x8 | x8 | x8 | x8 | x4 :|[M:3/8] x | x3 | x3 | x3 | x3 | x3 | x3 | %376
 x3 | x3 | x3 | x3 | x3 | x3 | x3 | x3 | x3 | x3 | x3 | x3 | x3 | x3 | x3 | x3 | x3 | x2 :: x | %395
 x3 | x3 | x3 | x3 | x3 | x3 | x3 | x3 | x3 | x3 | x3 | x3 | x3 | x3 | x3 | x3 | x3 | x3 | x3 | %414
 x3 | x3 | x3 | x3 | x3 | x3 | x3 | x3 | x3 | x3 | x3 | x3 | x3 | x3 | x3 | x3 | x3 | x3 | x3 | %433
 x3 | x3 | x3 | x3 | x3 | x3 | x3 | x3 | x3 | x2 :| %443
V:3
 x8 | C,,3 x5 | x8 | x8 | x4 A,,3 x | C,,2 x6 | x8 | x8 | C,,2 x6 | x8 | G,,3 x5 | G,,3 x5 | %12
 G,,2 x6 | G,,2 x6 | x8 | B,,2 x6 | B,,2 x6 | x8 | x8 | x8 | G,,2 x6 | G,,2 x6 | x8 | x8 | x8 | %25
 x8 ||[M:3/8] G,,2 x | x3 | x3 | x3 | x3 | x3 | x3 | x3 | x3 | x3 | x3 | x3 | x3 | x3 | x3 | x3 | %42
 x3 | x3 | x3 | x3 | x3 | x3 | x3 | x3 | x3 | x3 | x3 | x3 | x3 | x3 | x3 | x3 | x3 | x3 | x3 | %61
 x3 | G,,/ x5/2 | x3 | x3 | x3 | x3 | x3 | x3 | x3 | x3 | x3 | x3 | x3 | x3 | x3 | x3 | x3 | %78
 E,, x2 | x3 | x3 | x3 | x3 | x3 | x3 | x3 | x3 | x3 | x3 | x3 | x3 | x3 | x3 | x3 | x3 | x3 | x3 | %97
 x3 | x3 | x3 | x3 | x3 | x3 | x3 | x3 | x3 | x3 | x3 | x3 | x3 | x3 | x3 | x3 | x3 | x3 | x3 | %116
 x3 | x3 | x3 | x3 | x3 | x3 | x3 | x3 | x3 | x3 | x3 | x3 | x3 | x3 | x3 | x3 | x3 | x3 | x3 | %135
 x3 | x3 | x3 | x3 | x3 | x3 | x3 | x3 | x3 | x3 | x3 | x3 | x3 | x3 | x3 | x3 | x3 | x3 | x3 | %154
 x3 | x3 | x3 | x3 | x3 | x3 | x3 | x3 | x3 | x3 | x3 | x3 | x3 | x3 | x3 | x3 | x3 | x3 | x3 | %173
 x3 | x3 | x3 | x3 | x3 | x3 | x3 | x3 | x3 | x3 | x3 | x3 | x3 | x3 | x3 | x3 | x3 | x3 | x3 | %192
 x3 | x3 | x3 | x3 | x3 | x3 | x3 | x3 | x3 | x3 | x3 | x3 | x3 | x3 | x3 | x3 | x3 | x3 | x3 | %211
 x3 | x3 | x3 | x3 | x3 | C, x2 | x3 | ^F,, x2 | x3 | x3 | x2 F, | G,,3 |][M:4/4] x/ | E,2 x6 | %225
 x8 | G,, x7 | x8 | G,, x7 | E,2 x6 | E,2 x6 | C,2 x6 | F,2 x6 | x8 | F,2 x6 | x8 | x8 | x8 | %238
 ^F,2 x6 | x8 | D,2 x6 | x15/2 :: x/ | =B,2 x6 | x8 | x8 | x8 | x8 | E,2 x6 | G,,2 x6 | x8 | %251
 C,,2 x6 | x8 | x8 | x8 | x8 | x8 | =B,3/2 x13/2 | x8 | x8 | x4 E,3 x/ :|[M:3/2] x | x12 | %263
 =B,,3 x9 | x12 | F,3 x9 | G,,4 x8 | E,3 x9 | x12 | x12 | x12 | G,3 x9 | x12 | x11 :: x | =B,3 x9 | %276
 x12 | x6 D,2 E,3 x | x12 | x12 | x4 A,3 x5 | x12 | x12 | x12 | x12 | x2 G,,2 x8 | x6 E,4 x :| %287
[M:3/4] x6 | x6 | x6 | x6 | x6 | x6 | x6 | x6 :: x6 | x6 | x6 | x6 | x6 | x6 | x6 | x6 | x6 | x6 | %305
 x6 | x6 :|[M:4/4] E,2 x2 | x8 | x8 | x8 | G,,2 x6 | x8 | x8 | x8 | x8 | x8 | x4 G,2 x2 | %318
 x2 D,2 G,2 x2 | D,4 :: D,2 x2 | G,,2 x6 | x8 | x8 | x8 | x8 | x8 | x8 | x4 E,2 E,2 | x4 E,2 E,2 | %330
 A,,4 A,,2 x2 | x8 | B,,4 B,,2 x2 | x8 | x8 | x8 | x8 | x8 | D,4 x4 | x8 | =B,, x7 | C,2 x6 | %342
 x4 C,2 x2 | x4 C, x3 | x4 ::[M:4/4] x4 | x8 | x8 | x8 | x4 :: x4 | x8 | x8 | x8 | x8 | x8 | x8 | %357
 x8 | x8 | x8 | x8 | x8 | x8 | x8 | x8 | x8 | x8 | x8 | x4 :|[M:3/8] x | x3 | x3 | x3 | x3 | x3 | %375
 x3 | x3 | x3 | x3 | x3 | x3 | x3 | x3 | x3 | x3 | x3 | x3 | x3 | x3 | x3 | x3 | x3 | x3 | x2 :: %394
 x | x3 | x3 | x3 | x3 | x3 | x3 | x3 | x3 | x3 | x3 | x3 | x3 | x3 | x3 | x3 | x3 | x3 | x3 | x3 | %414
 x3 | x3 | x3 | x3 | x3 | x3 | x3 | x3 | x3 | x3 | x3 | x3 | x3 | x3 | x3 | x3 | x3 | x3 | x3 | %433
 x3 | x3 | x3 | x3 | x3 | x3 | x3 | x3 | x3 | x2 :| %443
V:4
 x8 | F,3 x5 | x8 | x8 | x8 | G,,2 x6 | x8 | x8 | x8 | x8 | x8 | x8 | x8 | x8 | x8 | D,,2 x6 | %16
 E,,2 x6 | x8 | x8 | x8 | x8 | C,,2 x6 | x8 | x8 | x8 | x8 ||[M:3/8] x3 | x3 | x3 | x3 | x3 | x3 | %32
 x3 | x3 | x3 | x3 | x3 | x3 | x3 | x3 | x3 | x3 | x3 | x3 | x3 | x3 | x3 | x3 | x3 | x3 | x3 | %51
 x3 | x3 | x3 | x3 | x3 | x3 | x3 | x3 | x3 | x3 | x3 | x3 | x3 | x3 | x3 | x3 | x3 | x3 | x3 | %70
 x3 | x3 | x3 | x3 | x3 | x3 | x3 | x3 | x3 | x3 | x3 | x3 | x3 | x3 | x3 | x3 | x3 | x3 | x3 | %89
 x3 | x3 | x3 | x3 | x3 | x3 | x3 | x3 | x3 | x3 | x3 | x3 | x3 | x3 | x3 | x3 | x3 | x3 | x3 | %108
 x3 | x3 | x3 | x3 | x3 | x3 | x3 | x3 | x3 | x3 | x3 | x3 | x3 | x3 | x3 | x3 | x3 | x3 | x3 | %127
 x3 | x3 | x3 | x3 | x3 | x3 | x3 | x3 | x3 | x3 | x3 | x3 | x3 | x3 | x3 | x3 | x3 | x3 | x3 | %146
 x3 | x3 | x3 | x3 | x3 | x3 | x3 | x3 | x3 | x3 | x3 | x3 | x3 | x3 | x3 | x3 | x3 | x3 | x3 | %165
 x3 | x3 | x3 | x3 | x3 | x3 | x3 | x3 | x3 | x3 | x3 | x3 | x3 | x3 | x3 | x3 | x3 | x3 | x3 | %184
 x3 | x3 | x3 | x3 | x3 | x3 | x3 | x3 | x3 | x3 | x3 | x3 | x3 | x3 | x3 | x3 | x3 | x3 | x3 | %203
 x3 | x3 | x3 | x3 | x3 | x3 | x3 | x3 | x3 | x3 | x3 | x3 | x3 | =E,, x2 | x3 | x3 | x3 | x3 | %221
 x3 | C,,3 |][M:4/4] x/ | C,,2 x6 | x8 | x8 | x8 | x8 | C,,2 x6 | C,,2 x6 | x8 | F,,2 x6 | x8 | %234
 D,,2 x6 | x8 | x8 | x8 | D,,2 x6 | x8 | x8 | x15/2 :: x/ | x8 | x8 | x8 | x8 | x8 | x8 | x8 | x8 | %251
 x8 | x8 | x8 | x8 | x8 | x8 | x8 | x8 | x8 | x4 C,,3 x/ :|[M:3/2] x | x12 | x12 | x12 | F,,3 x9 | %266
 x12 | x12 | x12 | x12 | x12 | x12 | x12 | x11 :: x | x12 | x12 | x12 | x12 | x12 | x12 | x12 | %282
 x12 | x12 | x12 | x12 | x6 C,,4 x :|[M:3/4] x6 | x6 | x6 | x6 | x6 | x6 | x6 | x6 :: x6 | x6 | %297
 x6 | x6 | x6 | x6 | x6 | x6 | x6 | x6 | x6 | x6 :|[M:4/4] x4 | x8 | x8 | x8 | x8 | x8 | x8 | x8 | %315
 x8 | x8 | x8 | x8 | x4 :: x4 | x8 | x8 | x8 | x8 | x8 | x8 | x8 | x8 | x8 | x8 | x8 | x8 | x8 | %334
 x8 | x8 | x8 | x8 | x8 | x8 | x8 | x8 | x8 | x8 | x4 ::[M:4/4] x4 | x8 | x8 | x8 | x4 :: x4 | x8 | %352
 x8 | x8 | x8 | x8 | x8 | x8 | x8 | x8 | x8 | x8 | x8 | x8 | x8 | x8 | x8 | x8 | x4 :|[M:3/8] x | %370
 x3 | x3 | x3 | x3 | x3 | x3 | x3 | x3 | x3 | x3 | x3 | x3 | x3 | x3 | x3 | x3 | x3 | x3 | x3 | %389
 x3 | x3 | x3 | x3 | x2 :: x | x3 | x3 | x3 | x3 | x3 | x3 | x3 | x3 | x3 | x3 | x3 | x3 | x3 | %408
 x3 | x3 | x3 | x3 | x3 | x3 | x3 | x3 | x3 | x3 | x3 | x3 | x3 | x3 | x3 | x3 | x3 | x3 | x3 | %427
 x3 | x3 | x3 | x3 | x3 | x3 | x3 | x3 | x3 | x3 | x3 | x3 | x3 | x3 | x3 | x2 :| %443

